; generated by Slic3r 1.1.7 on 2015-03-29 at 10:28:23

; perimeters extrusion width = 0.40mm
; infill extrusion width = 0.67mm
; solid infill extrusion width = 0.67mm
; top infill extrusion width = 0.67mm

G21 ; set units to millimeters
M107
M104 S200 ; set temperature
G28 ; home all axes
G1 Z5 F5000 ; lift nozzle

M109 S200 ; wait for temperature to be reached
G90 ; use absolute coordinates
G92 E0
M82 ; use absolute distances for extrusion
G1 F1800.000 E-1.00000
G92 E0
G1 Z0.350 F6000.000
G1 X88.564 Y83.222 F6000.000
G1 E1.00000 F1800.000
G1 X90.585 Y82.134 E1.21230 F1080.000
G1 X92.673 Y81.797 E1.40791
G1 X97.826 Y81.797 E1.88450
G1 X104.604 Y81.809 E2.51149 F1080.000
G1 X109.198 Y81.979 E2.93661
G1 X111.442 Y82.459 E3.14891
G1 X113.389 Y83.675 E3.36120
G1 X114.813 Y85.497 E3.57508
G1 X117.153 Y89.901 E4.03641
G1 X117.863 Y92.084 E4.24870
G1 X117.665 Y94.865 E4.50650
G1 X117.431 Y95.672 E4.58429
G1 X117.214 Y96.309 E4.64651
G1 X116.527 Y97.946 E4.81073
G1 X116.025 Y98.919 E4.91192
G1 X115.685 Y99.510 E4.97500
G1 X114.696 Y100.984 E5.13923
G1 X114.017 Y101.842 E5.24042
G1 X113.569 Y102.356 E5.30349
G1 X112.809 Y103.144 E5.40473
G1 X112.468 Y103.478 E5.44892
G1 X98.348 Y116.306 E7.21330
G1 X95.769 Y117.757 E7.48702
G1 X94.503 Y118.056 E7.60736
G1 X92.940 Y118.203 E7.75258
G1 X91.372 Y118.117 E7.89777
G1 X89.835 Y117.801 E8.04296
G1 X88.360 Y117.261 E8.18816
G1 X86.982 Y116.510 E8.33336
G1 X85.714 Y115.550 E8.48044
G1 X84.630 Y114.443 E8.62374
G1 X83.708 Y113.172 E8.76894
G1 X82.984 Y111.779 E8.91414
G1 X82.473 Y110.295 E9.05934
G1 X82.206 Y108.963 E9.18495
G1 X82.096 Y107.805 E9.29253
G1 X82.080 Y106.636 E9.40072
G1 X82.160 Y105.469 E9.50891
G1 X82.239 Y104.869 E9.56488
G1 X85.052 Y89.649 E10.99645
G1 X85.253 Y88.870 E11.07085
G1 X85.460 Y88.203 E11.13546
G1 X85.739 Y87.448 E11.20988
G1 X86.012 Y86.805 E11.27448
G1 X86.702 Y85.470 E11.41345
G1 X87.034 Y84.934 E11.47180
G1 X88.524 Y83.267 E11.67855
G1 F1800.000 E10.67855
G92 E0
G1 X95.306 Y104.066 F6000.000
G1 E1.00000 F1800.000
G1 X94.982 Y104.238 E1.03397 F378.000
G1 X94.621 Y104.299 E1.06777
G1 X94.261 Y104.238 E1.10156
G1 X93.937 Y104.066 E1.13553
G1 X93.671 Y103.805 E1.16993
G1 X93.476 Y103.481 E1.20497
G1 X93.358 Y103.114 E1.24065
G1 X93.318 Y102.726 E1.27672
G1 X93.358 Y102.338 E1.31279
G1 X93.476 Y101.971 E1.34846
G1 X93.671 Y101.646 E1.38350
G1 X93.937 Y101.385 E1.41791
G1 X94.261 Y101.213 E1.45189
G1 X94.621 Y101.152 E1.48568
G1 X94.917 Y101.202 E1.51343
G1 X94.982 Y101.213 E1.51947 F378.000
G1 X95.306 Y101.385 E1.55345
G1 X95.572 Y101.646 E1.58785
G1 X95.767 Y101.971 E1.62289
G1 X95.885 Y102.338 E1.65856
G1 X95.925 Y102.726 E1.69463
G1 X95.885 Y103.114 E1.73070
G1 X95.767 Y103.480 E1.76637
G1 X95.572 Y103.805 E1.80142
G1 X95.349 Y104.024 E1.83028
G1 F1800.000 E0.83028
G92 E0
G1 X94.919 Y101.137 F6000.000
G1 X92.357 Y104.150 F6000.000
G1 E1.00000 F1800.000
G1 X91.610 Y104.243 E1.06961 F540.000
G1 X90.929 Y104.370 E1.13366
G1 X91.321 Y103.719 E1.20391
G1 X91.608 Y103.318 E1.24952
G1 X92.048 Y102.803 E1.31218
G1 X92.107 Y103.377 E1.36562
G1 X92.338 Y104.093 E1.43517
G1 X93.711 Y104.735 F6000.000
G1 X92.480 Y104.776 E1.54911 F540.000
G1 X91.714 Y104.870 E1.62051
G1 X90.944 Y105.014 E1.69292
G1 X90.192 Y105.756 E1.79068
G1 X89.859 Y105.574 E1.82575
G1 X89.907 Y105.353 E1.84661
G1 X90.066 Y104.832 E1.89703
G1 X90.267 Y104.325 E1.94746
G1 X90.508 Y103.836 E1.99788
G1 X90.789 Y103.369 E2.04831
G1 X91.108 Y102.926 E2.09873
G1 X91.461 Y102.511 E2.14915
G1 X92.588 Y101.388 E2.29628
G1 X92.929 Y101.598 E2.33330
G1 X92.732 Y102.206 E2.39242
G1 X92.679 Y102.726 E2.44075
G1 X92.732 Y103.245 E2.48909
G1 X92.894 Y103.745 E2.53768
G1 X93.168 Y104.202 E2.58695
G1 X93.668 Y104.693 E2.65178
G1 F1800.000 E1.65178
G92 E0
G1 X95.246 Y99.637 F6000.000
G1 E1.00000 F1800.000
G1 X94.147 Y99.492 E1.10259 F540.000
G1 X94.278 Y99.189 E1.13315
G1 X94.408 Y98.718 E1.17837
G1 X94.473 Y98.234 E1.22353
G1 X94.469 Y97.312 E1.30880
G1 X93.761 Y96.170 E1.43306
G1 X93.467 Y95.569 E1.49497
G1 X93.235 Y94.941 E1.55688
G1 X93.068 Y94.292 E1.61880
G1 X92.967 Y93.631 E1.68071
G1 X92.933 Y92.962 E1.74262
G1 X92.967 Y92.294 E1.80454
G1 X93.068 Y91.632 E1.86645
G1 X93.235 Y90.984 E1.92836
G1 X93.467 Y90.356 E1.99027
G1 X93.614 Y90.054 E2.02132
G1 X97.083 Y90.054 E2.34219
G1 X97.599 Y90.523 E2.40666
G1 X98.387 Y91.032 E2.49340
G1 X99.247 Y91.406 E2.58015
G1 X100.157 Y91.634 E2.66690
G1 X101.092 Y91.711 E2.75367
G1 X102.027 Y91.634 E2.84041
G1 X102.936 Y91.406 E2.92717
G1 X103.797 Y91.032 E3.01391
G1 X104.584 Y90.523 E3.10067
G1 X105.062 Y90.088 E3.16042
G1 X107.540 Y90.180 E3.38973
G1 X107.742 Y90.848 E3.45424
G1 X107.999 Y91.481 E3.51751
G1 X108.315 Y92.088 E3.58078
G1 X108.686 Y92.663 E3.64404
G1 X109.108 Y93.201 E3.70731
G1 X109.429 Y93.539 E3.75044
G1 X109.153 Y94.230 E3.81920
G1 X108.706 Y95.097 E3.90947
G1 X108.177 Y95.917 E3.99975
G1 X107.570 Y96.682 E4.09002
G1 X106.893 Y97.385 E4.18029
G1 X106.151 Y98.019 E4.27056
G1 X105.351 Y98.578 E4.36084
G1 X104.500 Y99.057 E4.45111
G1 X103.607 Y99.451 E4.54138
G1 X102.681 Y99.757 E4.63165
G1 X100.431 Y100.266 E4.84501
G1 X99.966 Y102.063 E5.01671
G1 X99.781 Y102.513 E5.06167
G1 X99.537 Y102.933 E5.10664
G1 X99.239 Y103.317 E5.15160
G1 X98.891 Y103.657 E5.19656
G1 X98.501 Y103.946 E5.24152
G1 X98.075 Y104.181 E5.28649
G1 X97.621 Y104.355 E5.33145
G1 X97.148 Y104.466 E5.37641
G1 X96.628 Y104.515 E5.42465
G1 X96.931 Y104.010 E5.47914
G1 X97.136 Y103.377 E5.54063
G1 X97.203 Y102.726 E5.60122
G1 X97.136 Y102.074 E5.66182
G1 X96.931 Y101.441 E5.72334
G1 X96.578 Y100.852 E5.78682
G1 X96.065 Y100.349 E5.85335
G1 X95.065 Y99.818 E5.95808
G1 X95.204 Y99.679 E5.97629
G1 X93.883 Y100.098 F6000.000
G1 X93.123 Y99.999 E6.04714 F540.000
G1 X93.518 Y99.346 E6.11770
G1 X93.677 Y98.977 E6.15481
G1 X93.784 Y98.590 E6.19196
G1 X93.837 Y98.192 E6.22907
G1 X93.834 Y97.494 E6.29367
G1 X93.204 Y96.478 E6.40426
G1 X92.882 Y95.819 E6.47211
G1 X92.628 Y95.130 E6.53997
G1 X92.445 Y94.420 E6.60783
G1 X92.334 Y93.695 E6.67568
G1 X92.297 Y92.962 E6.74354
G1 X92.334 Y92.229 E6.81139
G1 X92.445 Y91.504 E6.87924
G1 X92.628 Y90.794 E6.94710
G1 X92.882 Y90.106 E7.01495
G1 X93.217 Y89.418 E7.08568
G1 X97.329 Y89.418 E7.46599
G1 X97.988 Y90.017 E7.54835
G1 X98.688 Y90.470 E7.62543
G1 X99.453 Y90.802 E7.70253
G1 X99.554 Y90.827 E7.71217
G1 X100.261 Y91.005 E7.77962
G1 X101.092 Y91.073 E7.85672
G1 X101.923 Y91.005 E7.93381
G1 X102.731 Y90.802 E8.01090
G1 X103.495 Y90.470 E8.08798
G1 X104.195 Y90.017 E8.16508
G1 X104.827 Y89.444 E8.24399
G1 X108.065 Y89.563 E8.54367
G1 X108.161 Y90.037 E8.58841
G1 X108.342 Y90.635 E8.64621
G1 X108.577 Y91.214 E8.70400
G1 X108.865 Y91.769 E8.76180
G1 X109.204 Y92.294 E8.81958
G1 X109.590 Y92.785 E8.87737
G1 X110.020 Y93.239 E8.93517
G1 X110.178 Y93.377 E8.95462
G1 X109.732 Y94.494 E9.06583
G1 X109.257 Y95.416 E9.16181
G1 X108.694 Y96.288 E9.25778
G1 X108.049 Y97.101 E9.35375
G1 X107.329 Y97.848 E9.44972
G1 X106.540 Y98.522 E9.54570
G1 X105.689 Y99.116 E9.64168
G1 X104.785 Y99.626 E9.73765
G1 X103.836 Y100.045 E9.83362
G1 X102.851 Y100.370 E9.92960
G1 X100.949 Y100.800 E10.10995
G1 X100.570 Y102.264 E10.24980
G1 X100.353 Y102.794 E10.30276
G1 X100.066 Y103.289 E10.35572
G1 X99.714 Y103.741 E10.40869
G1 X99.305 Y104.142 E10.46165
G1 X98.845 Y104.483 E10.51461
G1 X98.343 Y104.758 E10.56758
G1 X97.808 Y104.964 E10.62054
G1 X97.251 Y105.094 E10.67350
G1 X96.681 Y105.149 E10.72647
G1 X96.109 Y105.125 E10.77943
G1 X95.577 Y105.030 E10.82940
G1 X95.521 Y104.672 E10.86292
G1 X95.686 Y104.584 E10.88017
G1 X96.075 Y104.202 E10.93066
G1 X96.349 Y103.745 E10.97992
G1 X96.511 Y103.245 E11.02850
G1 X96.564 Y102.726 E11.07684
G1 X96.511 Y102.206 E11.12517
G1 X96.349 Y101.706 E11.17376
G1 X96.075 Y101.249 E11.22303
G1 X95.686 Y100.867 E11.27349
G1 X95.189 Y100.603 E11.32552
G1 X94.622 Y100.508 E11.37871
G1 X93.842 Y100.639 E11.45186
G1 X93.672 Y100.309 E11.48624
G1 X93.840 Y100.141 E11.50824
G1 X92.519 Y100.560 F6000.000
G1 X91.889 Y100.477 E11.56700 F378.000
G1 X91.824 Y100.110 E11.60150
G1 X92.105 Y99.964 E11.63081
G1 X92.362 Y99.782 E11.65987
G1 X92.591 Y99.567 E11.68893
G1 X92.789 Y99.323 E11.71799
G1 X92.951 Y99.054 E11.74706
G1 X93.076 Y98.766 E11.77612
G1 X93.160 Y98.463 E11.80518
G1 X93.201 Y98.151 E11.83424
G1 X93.199 Y97.676 E11.87817
G1 X92.647 Y96.786 E11.97510
G1 X92.297 Y96.069 E12.04890
G1 X92.020 Y95.320 E12.12270
G1 X91.821 Y94.548 E12.19649
G1 X91.701 Y93.759 E12.27029
G1 X91.660 Y92.962 E12.34408
G1 X91.701 Y92.165 E12.41788
G1 X91.821 Y91.377 E12.49168
G1 X92.020 Y90.604 E12.56547
G1 X92.297 Y89.855 E12.63927
G1 X92.647 Y89.138 E12.71307
G1 X92.867 Y88.783 E12.75178
G1 X97.649 Y88.783 E13.19401
G1 X97.838 Y89.022 E13.22216
G1 X98.377 Y89.512 E13.28959
G1 X98.989 Y89.908 E13.35702
G1 X99.709 Y90.211 E13.42921
G1 X100.365 Y90.376 E13.49182
G1 X101.092 Y90.435 E13.55926
G1 X101.818 Y90.376 E13.62669
G1 X102.526 Y90.198 E13.69412
G1 X103.194 Y89.908 E13.76155
G1 X103.807 Y89.512 E13.82898
G1 X104.346 Y89.022 E13.89641
G1 X104.524 Y88.796 E13.92297
G1 X108.625 Y88.948 E14.30249
G1 X108.665 Y89.328 E14.33781
G1 X108.778 Y89.882 E14.39013
G1 X108.941 Y90.423 E14.44244
G1 X109.155 Y90.947 E14.49476
G1 X109.416 Y91.449 E14.54707
G1 X109.722 Y91.924 E14.59939
G1 X110.071 Y92.369 E14.65170
G1 X110.460 Y92.780 E14.70402
G1 X110.888 Y93.154 E14.75656
G1 X110.719 Y93.737 E14.81271
G1 X110.311 Y94.758 E14.91439
G1 X109.807 Y95.735 E15.01606
G1 X109.211 Y96.659 E15.11774
G1 X108.528 Y97.520 E15.21941
G1 X107.765 Y98.311 E15.32109
G1 X106.929 Y99.025 E15.42277
G1 X106.028 Y99.655 E15.52444
G1 X105.070 Y100.195 E15.62612
G1 X104.065 Y100.639 E15.72780
G1 X103.021 Y100.984 E15.82947
G1 X101.467 Y101.335 E15.97682
G1 X101.175 Y102.465 E16.08481
G1 X100.924 Y103.075 E16.14577
G1 X100.594 Y103.645 E16.20674
G1 X100.189 Y104.166 E16.26770
G1 X99.718 Y104.626 E16.32866
G1 X99.189 Y105.019 E16.38963
G1 X98.611 Y105.336 E16.45059
G1 X97.996 Y105.573 E16.51155
G1 X97.354 Y105.723 E16.57252
G1 X96.698 Y105.785 E16.63348
G1 X96.039 Y105.758 E16.69444
G1 X94.685 Y105.498 E16.82199
G1 X94.329 Y105.446 E16.85530
G1 X93.611 Y105.388 E16.92189
G1 X92.891 Y105.388 E16.98849
G1 X92.532 Y105.410 E17.02179
G1 X91.817 Y105.498 E17.08839
G1 X91.252 Y105.603 E17.14156
G1 X90.607 Y106.240 E17.22538
G1 X90.215 Y106.908 E17.29704
G1 X90.010 Y107.655 E17.36871
G1 X90.006 Y108.430 E17.44037
G1 X90.201 Y109.180 E17.51203
G1 X90.702 Y110.060 E17.60568
G1 X90.360 Y110.331 E17.64604
G1 X90.072 Y110.063 E17.68241
G1 X89.737 Y109.643 E17.73211
G1 X89.467 Y109.179 E17.78180
G1 X89.269 Y108.679 E17.83149
G1 X89.144 Y108.144 E17.88234
G1 X89.077 Y107.563 E17.93644
G1 X89.057 Y106.966 E17.99169
G1 X89.087 Y106.369 E18.04693
G1 X89.165 Y105.777 E18.10218
G1 X89.292 Y105.193 E18.15743
G1 X89.465 Y104.622 E18.21267
G1 X89.685 Y104.066 E18.26792
G1 X89.950 Y103.531 E18.32317
G1 X90.258 Y103.019 E18.37842
G1 X90.607 Y102.534 E18.43367
G1 X90.994 Y102.079 E18.48891
G1 X92.476 Y100.602 E18.68245
G1 X92.656 Y100.184 F6000.000
G1 F1800.000 E17.68245
G92 E0
G1 X93.886 Y110.981 F6000.000
G1 E1.00000 F1800.000
G1 X93.273 Y111.090 E1.05757 F378.000
G1 X92.966 Y111.110 E1.08608
G1 X92.591 Y111.108 E1.12078
G1 X92.445 Y111.095 E1.13428
G1 X91.804 Y110.947 E1.19513
G1 X91.297 Y110.717 E1.24661
G1 X91.252 Y110.071 E1.30647
G1 F1800.000 E0.30647
G92 E0
G1 X97.457 Y103.945 F6000.000
G1 E1.00000 F1800.000
G1 X97.426 Y103.914 E1.00410 F1080.000
G1 X97.601 Y103.167 E1.07507
G1 X98.098 Y103.665 E1.14015
G1 X98.641 Y103.285 E1.20139
G1 X97.596 Y102.240 E1.33804
G1 X94.870 Y98.591 F6000.000
G1 X99.081 Y102.803 E1.88886 F1080.000
G1 X99.423 Y102.223 E1.95113
G1 X94.912 Y97.711 E2.54129
G1 X94.258 Y96.136 F6000.000
G1 X99.649 Y101.526 E3.24640 F1080.000
G1 X99.839 Y100.794 E3.31639
G1 X93.588 Y94.543 E4.13397
G1 X93.398 Y93.432 E4.23829
G1 X100.028 Y100.061 E5.10549
G1 X100.653 Y99.764 E5.16947
G1 X93.398 Y92.509 E6.11844
G1 X93.507 Y91.696 E6.19430
G1 X101.405 Y99.594 E7.22737
G1 X102.157 Y99.424 E7.29869
G1 X93.708 Y90.975 E8.40380
G1 X94.150 Y90.495 E8.46416
G1 X102.882 Y99.227 E9.60627
G1 X103.565 Y98.988 E9.67322
G1 X95.073 Y90.495 E10.78410
G1 X95.995 Y90.495 E10.86939
G1 X104.205 Y98.705 E11.94330
G1 X104.802 Y98.380 E12.00620
G1 X96.955 Y90.533 E13.03265
G1 X99.190 Y91.846 F6000.000
G1 X105.370 Y98.026 E13.84103 F1080.000
G1 X105.910 Y97.644 E13.90222
G1 X100.359 Y92.093 E14.62831
G1 X101.323 Y92.134 E14.71750
G1 X106.407 Y97.219 E15.38253
G1 X106.868 Y96.757 E15.44284
G1 X102.165 Y92.054 E16.05807
G1 X102.902 Y91.869 E16.12836
G1 X107.321 Y96.288 E16.70634
G1 X107.728 Y95.773 E16.76705
G1 X103.567 Y91.612 E17.31131
G1 X104.184 Y91.307 E17.37495
G1 X108.100 Y95.223 E17.88721
G1 X108.444 Y94.644 E17.94945
G1 X104.744 Y90.945 E18.43338
G1 X105.258 Y90.537 E18.49409
G1 X108.757 Y94.035 E18.95169
G1 X107.912 Y92.268 F6000.000
G1 X106.216 Y90.572 E19.17352 F1080.000
G1 X107.224 Y90.658 E19.26711
G1 X107.173 Y90.607 E19.27375
M106 S255
G1 F1800.000 E18.27375
G92 E0
G1 Z0.550 F6000.000
G1 X93.473 Y101.490 F6000.000
G1 E1.00000 F1800.000
G1 X93.787 Y101.181 E1.01464 F871.630
G1 X94.180 Y100.973 E1.02942
G1 X94.621 Y100.899 E1.04431
G1 X94.945 Y100.953 E1.05524
G1 X95.063 Y100.973 E1.05921 F871.630
G1 X95.456 Y101.181 E1.07398
G1 X95.770 Y101.490 E1.08863
G1 X95.996 Y101.867 E1.10324
G1 X96.131 Y102.286 E1.11790
G1 X96.177 Y102.726 E1.13260
G1 X96.131 Y103.165 E1.14730
G1 X95.996 Y103.585 E1.16196
G1 X95.770 Y103.961 E1.17657
G1 X95.456 Y104.270 E1.19121
G1 X95.063 Y104.478 E1.20599
G1 X94.621 Y104.552 E1.22089
G1 X94.180 Y104.478 E1.23578
G1 X93.787 Y104.270 E1.25055
G1 X93.473 Y103.961 E1.26520
G1 X93.247 Y103.585 E1.27981
G1 X93.112 Y103.165 E1.29447
G1 X93.066 Y102.726 E1.30917
G1 X93.112 Y102.286 E1.32387
G1 X93.247 Y101.867 E1.33853
G1 X93.442 Y101.541 E1.35114
G1 X93.790 Y101.739 F6000.000
G1 X94.026 Y101.507 E1.36215 F610.141
G1 X94.310 Y101.357 E1.37284
G1 X94.566 Y101.314 E1.38148
G1 X94.621 Y101.305 E1.38334 F610.141
G1 X94.933 Y101.357 E1.39385
G1 X95.217 Y101.507 E1.40454
G1 X95.453 Y101.739 E1.41554
G1 X95.629 Y102.033 E1.42694
G1 X95.738 Y102.369 E1.43867
G1 X95.774 Y102.726 E1.45060
G1 X95.738 Y103.082 E1.46253
G1 X95.629 Y103.418 E1.47426
G1 X95.453 Y103.712 E1.48566
G1 X95.217 Y103.944 E1.49666
G1 X94.933 Y104.094 E1.50735
G1 X94.621 Y104.147 E1.51786
G1 X94.310 Y104.094 E1.52836
G1 X94.026 Y103.944 E1.53905
G1 X93.790 Y103.712 E1.55005
G1 X93.614 Y103.418 E1.56145
G1 X93.505 Y103.082 E1.57318
G1 X93.468 Y102.726 E1.58511
G1 X93.505 Y102.369 E1.59704
G1 X93.614 Y102.033 E1.60877
G1 X93.759 Y101.791 E1.61817
G1 X94.577 Y101.259 F6000.000
G1 X93.160 Y101.235 F6000.000
G1 X92.881 Y101.700 E1.63620 F871.630
G1 X92.718 Y102.203 E1.65378
G1 X92.664 Y102.726 E1.67125
G1 X92.718 Y103.248 E1.68873
G1 X92.881 Y103.751 E1.70631
G1 X93.156 Y104.211 E1.72414
G1 X93.695 Y104.739 E1.74922
G1 X93.251 Y104.730 E1.76398
G1 X92.479 Y104.762 E1.78969
G1 X91.711 Y104.856 E1.81541
G1 X90.937 Y105.000 E1.84160
G1 X90.041 Y105.885 E1.88349
G1 X89.832 Y105.770 E1.89143
G1 X89.921 Y105.357 E1.90550
G1 X90.079 Y104.836 E1.92360
G1 X90.280 Y104.331 E1.94169
G1 X90.521 Y103.843 E1.95978
G1 X90.801 Y103.377 E1.97788
G1 X91.119 Y102.935 E1.99597
G1 X91.472 Y102.521 E2.01406
G1 X92.937 Y101.061 E2.08286
G1 X93.112 Y101.198 E2.09027
G1 X93.913 Y100.088 F6000.000
G1 X93.093 Y99.980 E2.11779 F871.630
G1 X93.322 Y99.697 E2.12988
G1 X93.531 Y99.352 E2.14330
G1 X93.690 Y98.982 E2.15672
G1 X93.798 Y98.593 E2.17013
G1 X93.851 Y98.193 E2.18355
G1 X93.849 Y97.490 E2.20694
G1 X93.216 Y96.471 E2.24683
G1 X92.895 Y95.813 E2.27118
G1 X92.642 Y95.126 E2.29553
G1 X92.465 Y94.440 E2.31909
G1 X92.348 Y93.693 E2.34423
G1 X92.311 Y92.962 E2.36858
G1 X92.339 Y92.423 E2.38654
G1 X92.348 Y92.231 E2.39294
G1 X92.459 Y91.507 E2.41729
G1 X92.642 Y90.798 E2.44164
G1 X92.895 Y90.111 E2.46599
G1 X93.226 Y89.433 E2.49110
G1 X97.324 Y89.433 E2.62738
G1 X97.979 Y90.029 E2.65685
G1 X98.681 Y90.483 E2.68465
G1 X99.448 Y90.816 E2.71245
G1 X99.586 Y90.850 E2.71718
G1 X100.259 Y91.019 E2.74025
G1 X101.092 Y91.088 E2.76806
G1 X101.925 Y91.019 E2.79586
