; generated by Slic3r 1.1.7 on 2015-03-28 at 17:44:26

; perimeters extrusion width = 0.50mm
; infill extrusion width = 1.02mm
; solid infill extrusion width = 0.85mm
; top infill extrusion width = 0.85mm

M127
M104 S200 T0 ; set temperature
G28 ; home all axes
G1 Z5 F5000 ; lift nozzle

M73 P0
G1 F1800.000 E-1.00000
M103 ; extruder off
G1 Z0.350 F6000.000
G1 X81.888 Y79.888 F6000.000
M101 ; extruder on
G1 E0.00000 F1800.000
G1 X82.575 Y79.237 E0.09047 F1080.000
G1 X83.473 Y78.576 E0.19714
G1 X84.758 Y77.952 E0.33369
G1 X85.186 Y77.807 E0.37686
G1 X86.381 Y77.454 E0.49604
G1 X87.586 Y77.221 E0.61342
G1 X88.380 Y77.169 E0.68948
G1 X99.658 Y76.819 E1.76831
G1 X108.389 Y76.727 E2.60319
M101 ; extruder on
G1 X113.616 Y77.027 E3.10374 F1080.000
G1 X114.607 Y77.225 E3.20035
G1 X114.873 Y77.299 E3.22681
G1 X116.246 Y77.851 E3.36826
G1 X116.485 Y77.984 E3.39442
G1 X117.370 Y78.565 E3.49564
G1 X117.967 Y79.065 E3.57010
G1 X119.301 Y80.792 E3.77875
G1 X119.807 Y81.894 E3.89470
G1 X120.097 Y82.917 E3.99639
G1 X120.203 Y83.573 E4.05995
G1 X120.286 Y84.579 E4.15641
G1 X120.288 Y85.331 E4.22829
G1 X119.916 Y94.768 E5.13137
G1 X119.788 Y97.184 E5.36270
G1 X119.749 Y97.571 E5.39987
G1 X119.081 Y99.771 E5.61969
G1 X117.334 Y101.936 E5.88566
G1 X90.099 Y124.026 E9.23860
G1 X88.091 Y125.145 E9.45842
G1 X85.821 Y125.513 E9.67824
G1 X84.169 Y125.283 E9.83773
G1 X83.453 Y125.089 E9.90866
G1 X82.274 Y124.647 E10.02904
G1 X81.178 Y124.112 E10.14566
G1 X79.978 Y123.442 E10.27712
G1 X78.438 Y122.286 E10.46119
G1 X77.883 Y121.758 E10.53441
G1 X76.120 Y118.923 E10.85366
G1 X75.803 Y117.910 E10.95516
G1 X75.566 Y114.990 E11.23521
G1 X80.001 Y83.709 E14.25599
G1 X80.042 Y83.478 E14.27848
G1 X80.634 Y81.675 E14.45987
G1 X81.845 Y79.949 E14.66149
G1 F1800.000 E13.66149
M103 ; extruder off
G1 X88.046 Y105.458 F6000.000
M101 ; extruder on
G1 E14.66149 F1800.000
G1 X87.541 Y97.274 E15.44552 F378.000
G1 X88.076 Y94.909 E15.67734
G1 X88.523 Y94.938 E15.72020
G1 X88.628 Y96.033 E15.82537
G1 X88.649 Y96.031 E15.82738
G1 X88.724 Y98.019 E16.01761
G1 X88.789 Y101.069 E16.30929
G1 X88.781 Y101.385 E16.33948
G1 X88.822 Y102.691 E16.46443
G1 X88.770 Y103.776 E16.56826
G1 X88.669 Y104.494 E16.63760
G1 X88.546 Y104.846 E16.67325
G1 X88.488 Y104.947 E16.68438
G1 X88.095 Y105.401 E16.74182
G1 X88.144 Y104.968 F6000.000
G1 F1800.000 E15.74182
M103 ; extruder off
G1 X93.344 Y91.951 F6000.000
M101 ; extruder on
G1 E16.74182 F1800.000
G1 X91.914 Y85.502 E17.37345 F540.000
G1 X93.910 Y85.381 E17.56459
G1 X94.627 Y85.460 E17.63360
G1 X95.060 Y85.480 E17.67505
G1 X95.854 Y85.505 E17.75096
G1 X96.353 Y85.491 E17.79872
G1 X98.160 Y85.257 E17.97292
G1 X99.778 Y85.141 E18.12800
G1 X100.289 Y85.159 E18.17690
G1 X100.853 Y85.227 E18.23124
G1 X102.791 Y85.328 E18.41674
G1 X102.792 Y85.242 E18.42498
G1 X104.484 Y85.263 E18.58679
G1 X98.564 Y91.779 E19.42853
G1 X93.419 Y91.949 E19.92076
G1 X92.821 Y92.626 F6000.000
M101 ; extruder on
G1 X91.099 Y84.861 E20.68121 F540.000
G1 X92.165 Y84.822 E20.78318
G1 X93.923 Y84.723 E20.95148
G1 X94.677 Y84.804 E21.02404
G1 X95.853 Y84.848 E21.13658
G1 X96.309 Y84.835 E21.18021
G1 X98.092 Y84.603 E21.35205
G1 X99.762 Y84.483 E21.51220
G1 X100.349 Y84.505 E21.56834
G1 X100.926 Y84.573 E21.62392
G1 X102.140 Y84.636 E21.74016
G1 X102.141 Y84.582 E21.74533
G1 X104.110 Y84.601 E21.93364
G1 X104.906 Y84.586 E22.00972
G1 X104.908 Y84.607 E22.01170
G1 X106.032 Y84.536 E22.11933
G1 X98.864 Y92.427 E23.13860
G1 X92.896 Y92.624 E23.70957
G1 X92.297 Y93.301 F6000.000
M101 ; extruder on
G1 X90.285 Y84.225 E24.59839 F378.000
G1 X92.126 Y84.165 E24.77448
G1 X93.935 Y84.065 E24.94772
G1 X94.727 Y84.149 E25.02383
G1 X95.853 Y84.191 E25.13155
G1 X96.266 Y84.179 E25.17106
G1 X98.133 Y83.938 E25.35107
G1 X99.759 Y83.825 E25.50692
G1 X100.409 Y83.850 E25.56914
G1 X101.000 Y83.919 E25.62597
G1 X101.490 Y83.945 E25.67293
G1 X101.490 Y83.916 E25.67568
G1 X104.105 Y83.944 E25.92569
G1 X105.482 Y83.897 E26.05746
G1 X105.484 Y83.912 E26.05896
G1 X106.501 Y83.842 E26.15645
G1 X107.648 Y83.733 E26.26658
G1 X99.163 Y93.074 E27.47314
G1 X92.372 Y93.298 E28.12283
G1 X92.477 Y92.834 F6000.000
G1 F1800.000 E27.12283
M103 ; extruder off
G1 X88.629 Y86.312 F6000.000
M101 ; extruder on
G1 E28.12283 F1800.000
G1 X88.191 Y85.555 E28.20641 F540.000
G1 X87.796 Y85.028 E28.26938
G1 X88.419 Y84.845 E28.33143
G1 X88.958 Y84.854 E28.38302
G1 X88.645 Y86.238 E28.51871
G1 X88.424 Y88.319 F6000.000
M101 ; extruder on
G1 X88.305 Y87.747 E28.57454 F378.000
G1 X88.094 Y86.977 E28.65095
G1 X87.868 Y86.313 E28.71797
G1 X87.672 Y85.963 E28.75629
G1 X87.456 Y85.669 E28.79119
G1 X87.082 Y85.268 E28.84364
G1 X86.911 Y84.999 E28.87409
G1 X86.908 Y84.889 E28.88468
G1 X86.931 Y84.759 E28.89731
G1 X87.156 Y84.547 E28.92685
G1 X88.145 Y84.236 E29.02597
G1 X88.329 Y84.190 E29.04405
G1 X88.590 Y84.175 E29.06906
G1 X89.776 Y84.216 E29.18259
G1 X88.848 Y88.322 E29.58516
G1 X88.499 Y88.319 E29.61850
G1 X88.614 Y87.856 F6000.000
G1 F1800.000 E28.61850
M103 ; extruder off
G1 X87.641 Y105.876 F6000.000
M101 ; extruder on
G1 E29.61850 F1800.000
G1 X87.639 Y105.964 E29.62696 F378.000
G1 X87.384 Y106.316 E29.66850
G1 X86.888 Y106.539 E29.72049
G1 X85.866 Y107.185 E29.83614
G1 X85.741 Y107.280 E29.85110
G1 X85.482 Y107.546 E29.88663
G1 F1800.000 E28.88663
M103 ; extruder off
G1 X88.311 Y94.573 F6000.000
M101 ; extruder on
G1 E29.88663 F1800.000
G1 X88.352 Y93.751 E29.96530 F378.000
G1 X88.524 Y91.677 E30.16431
G1 F1800.000 E29.16431
M103 ; extruder off
G1 X113.161 Y91.473 F6000.000
M101 ; extruder on
G1 E30.16431 F1800.000
G1 X113.074 Y90.392 E30.26806 F378.000
G1 X113.066 Y89.614 E30.34247
G1 X113.130 Y88.650 E30.43484
G1 X113.212 Y87.937 E30.50345
G1 X113.290 Y86.744 E30.61768
G1 F1800.000 E29.61768
M103 ; extruder off
G1 X88.144 Y88.667 F6000.000
M101 ; extruder on
G1 E30.61768 F1800.000
G1 X88.626 Y89.072 E30.67786 F378.000
G1 X88.580 Y90.788 E30.84198
G1 F1800.000 E29.84198
M103 ; extruder off
G1 X108.527 Y83.405 F6000.000
M101 ; extruder on
G1 E30.84198 F1800.000
G1 X108.895 Y83.786 E30.89257 F378.000
G1 X111.001 Y83.905 E31.09422
G1 X112.731 Y84.075 E31.26040
G1 X112.928 Y84.119 E31.27973
G1 X113.127 Y84.198 E31.30015
G1 X113.612 Y84.531 E31.35645
G1 F1800.000 E30.35645
M103 ; extruder off
G1 X103.301 Y85.812 F6000.000
M101 ; extruder on
G1 E31.35645 F1800.000
G1 X103.336 Y85.847 E31.36122 F1080.000
G1 X102.883 Y86.346 E31.42564
G1 X102.297 Y85.759 E31.50496
G1 X101.292 Y85.707 E31.60111
G1 X102.430 Y86.845 E31.75498
G1 X101.977 Y87.343 E31.81939
G1 X100.248 Y85.614 E32.05321
G1 X99.313 Y85.631 E32.14258
G1 X101.524 Y87.842 E32.44151
G1 X101.071 Y88.341 E32.50593
G1 X98.425 Y85.695 E32.86369
G1 X97.572 Y85.793 E32.94585
G1 X100.618 Y88.840 E33.35780
G1 X100.165 Y89.338 E33.42222
G1 X96.729 Y85.902 E33.88683
G1 X95.837 Y85.962 E33.97235
G1 X99.712 Y89.837 E34.49638
G1 X99.259 Y90.336 E34.56080
G1 X94.850 Y85.927 E35.15693
G1 X93.816 Y85.844 E35.25615
G1 X98.806 Y90.834 E35.93091
G1 X98.339 Y91.319 E35.99527
G1 X92.918 Y85.898 E36.72816
G1 X92.613 Y86.545 E36.79651
G1 X97.428 Y91.360 E37.44762
G1 X96.507 Y91.390 E37.53576
G1 X92.884 Y87.768 E38.02564
G1 X93.155 Y88.990 E38.14539
G1 X95.586 Y91.421 E38.47404
G1 X94.664 Y91.451 E38.56218
G1 X93.426 Y90.213 E38.72959
G1 X93.697 Y91.436 E38.84934
G1 X93.743 Y91.482 E38.85552
G1 F1800.000 E37.85552
M103 ; extruder off
G1 X88.190 Y96.587 F6000.000
M101 ; extruder on
G1 E38.85552 F1800.000
G1 X88.121 Y97.321 E38.89650 F360.000
G1 X88.283 Y101.079 E39.10573
M126
M73 P0
G1 F1800.000 E38.10573
M103 ; extruder off
G1 Z0.550 F6000.000
G1 X84.597 Y117.701 F6000.000
M101 ; extruder on
G1 E39.10573 F1800.000
G1 X84.215 Y117.506 E39.12356 F600.000
G1 X83.703 Y117.189 E39.14861
G1 X83.356 Y116.837 E39.16914
G1 X83.110 Y116.466 E39.18767
G1 X82.801 Y115.786 E39.21873
G1 X82.790 Y115.756 E39.22005
G1 X82.854 Y115.420 E39.23425
G1 X83.205 Y114.099 E39.29108
G1 F1800.000 E38.29108
M103 ; extruder off
G1 X85.635 Y108.405 F6000.000
M101 ; extruder on
G1 E39.29108 F1800.000
G1 X85.885 Y108.028 E39.30986 F600.000
G1 X86.323 Y107.432 E39.34061
G1 X87.211 Y106.616 E39.39073
G1 X87.392 Y106.470 E39.40041
G1 F1800.000 E38.40041
M103 ; extruder off
G1 X113.150 Y91.496 F6000.000
M101 ; extruder on
G1 E39.40041 F1800.000
G1 X113.048 Y90.349 E39.44829 F600.000
G1 X113.051 Y89.286 E39.49245
G1 X113.336 Y86.748 E39.59866
G1 F1800.000 E38.59866
M103 ; extruder off
G1 X88.331 Y85.036 F6000.000
M101 ; extruder on
G1 E39.59866 F1800.000
G1 X89.498 Y85.116 E39.64730 F600.000
G1 X90.425 Y85.146 E39.68585
G1 X91.414 Y85.083 E39.72704
G1 X92.450 Y85.060 E39.77015
G1 X94.034 Y84.978 E39.83608
G1 X94.432 Y85.025 E39.85275
G1 X96.125 Y85.061 E39.92313
G1 X96.464 Y85.041 E39.93727
G1 X97.609 Y84.893 E39.98525
G1 X98.841 Y84.766 E40.03674
G1 X99.700 Y84.709 E40.07256
G1 X100.521 Y84.735 E40.10671
G1 X101.367 Y84.809 E40.14203
G1 X102.986 Y84.808 E40.20931
G1 X104.187 Y84.833 E40.25928
G1 X105.472 Y84.785 E40.31272
G1 X97.343 Y93.735 E40.81536
M101 ; extruder on
M126
G1 X90.435 Y101.340 E41.65410 F3600.000
G1 X90.327 Y97.137 E41.99728
G1 X90.198 Y94.551 E42.20869
G1 X90.102 Y94.557 E42.21651
G1 X89.983 Y93.706 E42.28669
G1 X89.877 Y92.025 E42.42419
G1 X89.681 Y90.365 E42.56064
G1 X89.395 Y88.622 E42.70482
M126
M101 ; extruder on
G1 X89.065 Y87.018 E42.77289 F600.000
G1 X88.862 Y86.270 E42.80510
G1 X88.599 Y85.556 E42.83675
G1 X88.365 Y85.103 E42.85797
G1 X87.556 Y84.845 F6000.000
M101 ; extruder on
G1 X87.931 Y84.729 E42.87430 F600.000
G1 X88.352 Y84.563 E42.89312
G1 X88.602 Y84.554 E42.90350
G1 X89.543 Y84.617 E42.94270
G1 X90.422 Y84.645 E42.97930
G1 X91.394 Y84.583 E43.01976
G1 X92.421 Y84.561 E43.06247
G1 X94.038 Y84.477 E43.12981
G1 X94.465 Y84.526 E43.14765
G1 X96.108 Y84.562 E43.21599
G1 X96.421 Y84.543 E43.22901
G1 X97.547 Y84.397 E43.27624
G1 X98.797 Y84.268 E43.32848
G1 X99.694 Y84.209 E43.36583
G1 X100.564 Y84.237 E43.40203
G1 X101.371 Y84.309 E43.43574
G1 X102.983 Y84.308 E43.50273
G1 X104.181 Y84.333 E43.55255
G1 X105.723 Y84.286 E43.61669
G1 X106.675 Y84.204 E43.65643
G1 X98.039 Y93.712 E44.19042
M101 ; extruder on
M126
G1 X89.958 Y102.608 E45.17154 F3600.000
G1 X89.834 Y97.347 E45.60111
G1 X89.725 Y95.084 E45.78607
G1 X89.668 Y95.088 E45.79076
G1 X89.485 Y93.759 E45.90031
G1 X89.380 Y92.078 E46.03776
G1 X89.185 Y90.431 E46.17313
G1 X89.106 Y89.902 E46.21684
M126
M101 ; extruder on
G1 X88.968 Y89.046 E46.25288 F600.000
G1 X88.715 Y87.766 E46.30712
G1 X88.578 Y87.134 E46.33402
G1 X88.384 Y86.415 E46.36496
G1 X88.142 Y85.761 E46.39396
G1 X88.043 Y85.569 E46.40295
G1 X87.885 Y85.309 E46.41558
G1 X87.597 Y84.907 E46.43614
G1 X107.914 Y83.584 F6000.000
M101 ; extruder on
G1 X98.736 Y93.689 E47.00370 F600.000
G1 X89.220 Y95.486 F6000.000
M101 ; extruder on
G1 X89.172 Y95.153 E47.01770 F600.000
M101 ; extruder on
M126
G1 X89.118 Y94.707 E47.05433 F3600.000
M126
M101 ; extruder on
G1 X88.997 Y93.869 E47.08953 F600.000
M101 ; extruder on
M126
G1 X88.930 Y92.800 E47.17698 F3600.000
M126
G1 X98.736 Y93.689 F6000.000
M101 ; extruder on
M126
G1 X89.694 Y103.643 E48.27473 F3600.000
G1 X89.432 Y103.530 E48.29805
G1 X89.456 Y103.214 E48.32387
G1 X89.455 Y102.442 E48.38691
G1 X89.373 Y98.843 E48.68082
G1 X89.310 Y96.724 E48.85388
G1 X89.252 Y95.618 E48.94428
G1 X89.220 Y95.486 E48.95534
M126
G1 X88.930 Y92.800 F6000.000
M101 ; extruder on
G1 X88.883 Y92.131 E48.98321 F600.000
G1 X88.615 Y90.001 E49.07249
G1 X88.476 Y89.134 E49.10901
G1 X88.092 Y87.249 E49.18896
G1 X87.905 Y86.560 E49.21865
G1 X87.685 Y85.966 E49.24498
G1 X87.544 Y85.702 E49.25742
G1 X87.206 Y85.220 E49.28192
G1 X87.110 Y84.990 E49.29225
G1 X87.067 Y84.813 E49.29983
G1 X87.114 Y84.658 E49.30656
G1 X87.159 Y84.576 E49.31046
G1 X87.387 Y84.375 E49.32309
G1 X87.771 Y84.255 E49.33985
G1 X88.229 Y84.076 E49.36029
G1 X88.578 Y84.051 E49.37482
G1 X89.587 Y84.119 E49.41688
G1 X90.420 Y84.145 E49.45152
G1 X91.374 Y84.084 E49.49124
G1 X92.391 Y84.061 E49.53355
G1 X94.048 Y83.976 E49.60253
G1 X94.497 Y84.026 E49.62132
G1 X96.091 Y84.062 E49.68762
G1 X96.377 Y84.045 E49.69953
G1 X97.486 Y83.900 E49.74601
G1 X98.753 Y83.770 E49.79899
G1 X99.547 Y83.714 E49.83207
G1 X100.576 Y83.736 E49.87484
G1 X101.375 Y83.808 E49.90822
G1 X102.980 Y83.808 E49.97491
G1 X104.174 Y83.833 E50.02459
G1 X105.868 Y83.776 E50.09506
G1 X106.931 Y83.659 E50.13950
G1 X107.840 Y83.589 E50.17740
G1 X89.087 Y92.326 F6000.000
G1 F1800.000 E49.17740
M103 ; extruder off
G1 X111.957 Y84.341 F6000.000
M101 ; extruder on
G1 E50.17740 F1800.000
G1 X112.813 Y84.365 E50.21302 F600.000
G1 X112.853 Y84.801 E50.23121
M101 ; extruder on
M126
G1 X112.860 Y84.873 E50.23715 F3600.000
G1 X111.919 Y84.713 E50.31509
G1 X111.926 Y84.643 E50.32084
M126
M101 ; extruder on
G1 X111.949 Y84.416 E50.33033 F600.000
G1 X113.291 Y85.454 F6000.000
M101 ; extruder on
G1 X113.117 Y85.425 E50.33765 F600.000
M101 ; extruder on
M126
G1 X111.265 Y85.109 E50.49107 F3600.000
G1 X109.033 Y84.988 E50.67351
G1 X109.001 Y84.390 E50.72242
M126
M101 ; extruder on
G1 X108.964 Y83.678 E50.75206 F600.000
G1 X111.205 Y83.846 E50.84550
G1 X112.667 Y83.862 E50.90628
G1 X112.896 Y83.903 E50.91597
G1 X113.021 Y83.959 E50.92165
G1 X113.214 Y84.092 E50.93142
G1 X113.278 Y84.218 E50.93730
G1 X113.319 Y84.411 E50.94548
G1 X113.377 Y85.049 E50.97212
G1 X113.307 Y85.381 E50.98623
G1 X109.258 Y83.960 F6000.000
G1 F1800.000 E49.98623
M103 ; extruder off
G1 X100.234 Y89.881 F6000.000
M101 ; extruder on
G1 E50.98623 F1800.000
G1 X99.918 Y90.197 E51.01617 F1181.197
G1 X98.702 Y90.237 E51.09783
G1 X103.666 Y85.273 E51.56895
G1 X102.504 Y85.259 E51.64694
G1 X97.486 Y90.277 E52.12319
G1 X96.270 Y90.317 E52.20486
G1 X101.328 Y85.259 E52.68496
G1 X100.234 Y85.176 E52.75859
G1 X95.054 Y90.357 E53.25029
G1 X94.440 Y89.795 E53.30615
G1 X99.029 Y85.206 E53.74168
G1 X97.724 Y85.334 E53.82968
G1 X94.227 Y88.832 E54.16162
G1 X94.013 Y87.869 E54.22780
G1 X96.385 Y85.498 E54.45288
G1 X95.213 Y85.493 E54.53150
G1 X93.550 Y87.156 E54.68934
G1 X92.399 Y87.132 E54.76664
G1 X94.092 Y85.439 E54.92730
G1 X92.864 Y85.490 E55.00974
G1 X91.627 Y86.727 E55.12718
G1 X91.609 Y85.569 E55.20493
G1 X91.649 Y85.529 E55.20874
G1 X91.210 Y85.717 F6000.000
M101 ; extruder on
M126
G1 X91.096 Y85.555 E55.22484 F3600.000
G1 X90.430 Y85.597 E55.27938
G1 X91.225 Y86.733 E55.39260
M126
G1 X91.776 Y87.520 F6000.000
M101 ; extruder on
M126
G1 X96.392 Y94.112 E56.04946 F3600.000
G1 X95.998 Y94.544 E56.09719
G1 X89.717 Y85.574 E56.99113
G1 X89.172 Y85.789 E57.03901
G1 X95.605 Y94.977 E57.95461
G1 X95.212 Y95.410 E58.00235
G1 X89.603 Y87.399 E58.80067
M126
G1 X89.889 Y88.802 F6000.000
M101 ; extruder on
M126
G1 X94.819 Y95.843 E59.50231 F3600.000
G1 X94.426 Y96.276 E59.55005
G1 X90.094 Y90.090 E60.16652
G1 X90.246 Y91.300 E60.26613
G1 X94.032 Y96.709 E60.80509
G1 X93.639 Y97.141 E60.85282
G1 X90.356 Y92.452 E61.32010
G1 X90.425 Y93.545 E61.40947
G1 X93.246 Y97.574 E61.81101
G1 X92.853 Y98.007 E61.85874
G1 X90.666 Y94.884 E62.16998
G1 X90.719 Y95.955 E62.25749
G1 X92.460 Y98.440 E62.50517
G1 X92.067 Y98.873 E62.55291
G1 X90.773 Y97.025 E62.73703
G1 X90.802 Y98.061 E62.82159
G1 X91.673 Y99.306 E62.94566
G1 X91.280 Y99.738 E62.99339
G1 X90.828 Y99.093 E63.05774
G1 X90.855 Y100.125 E63.14202
G1 X90.875 Y100.155 E63.14497
M126
G1 X94.748 Y90.769 F6000.000
M101 ; extruder on
M126
G1 X96.785 Y93.679 E63.43489 F3600.000
G1 X97.178 Y93.246 E63.48263
G1 X95.428 Y90.747 E63.73164
G1 X96.109 Y90.725 E63.78723
G1 X97.571 Y92.813 E63.99535
G1 X97.964 Y92.380 E64.04308
G1 X96.789 Y90.702 E64.21030
G1 X97.470 Y90.680 E64.26589
G1 X98.357 Y91.947 E64.39221
G1 X98.751 Y91.514 E64.43994
G1 X98.150 Y90.657 E64.52537
G1 X98.831 Y90.635 E64.58095
G1 X99.144 Y91.082 E64.62547
G1 X99.537 Y90.649 E64.67321
G1 X99.511 Y90.612 E64.67683
M126
G1 X94.012 Y89.718 F6000.000
M101 ; extruder on
M126
G1 X92.483 Y87.535 E64.89438 F3600.000
G1 X93.190 Y87.550 E64.95209
G1 X93.689 Y88.263 E65.02314
M126
G1 F1800.000 E64.02314
M103 ; extruder off
G1 X109.235 Y83.959 F6000.000
M101 ; extruder on
G1 E65.02314 F1800.000
G1 X109.646 Y84.376 E65.05758 F600.000
G1 X111.690 Y84.491 E65.17797
M73 P0
