; generated by Slic3r 1.1.7 on 2015-03-28 at 17:08:13

; perimeters extrusion width = 0.50mm
; infill extrusion width = 1.02mm
; solid infill extrusion width = 0.85mm
; top infill extrusion width = 0.85mm

G21 ; set units to millimeters
M107
M104 S200 ; set temperature
G28 ; home all axes
G1 Z5 F5000 ; lift nozzle

M109 S200 ; wait for temperature to be reached
G90 ; use absolute coordinates
G92 E0
M82 ; use absolute distances for extrusion
G1 F1800.000 E-1.00000
G92 E0
G1 Z0.350 F7800.000
G1 X81.888 Y79.888 F7800.000
G1 E1.00000 F1800.000
G1 X82.575 Y79.237 E1.03078 F1080.000
G1 X83.473 Y78.576 E1.06708
G1 X84.758 Y77.952 E1.11355
G1 X85.186 Y77.807 E1.12824
G1 X86.381 Y77.454 E1.16879
G1 X87.586 Y77.221 E1.20873
G1 X88.380 Y77.169 E1.23461
G1 X99.658 Y76.819 E1.60172
G1 X108.389 Y76.727 E1.88581
G1 X113.616 Y77.027 E2.05613 F1080.000
G1 X114.607 Y77.225 E2.08901
G1 X114.873 Y77.299 E2.09801
G1 X116.246 Y77.851 E2.14614
G1 X116.485 Y77.984 E2.15505
G1 X117.370 Y78.565 E2.18949
G1 X117.967 Y79.065 E2.21483
G1 X119.301 Y80.792 E2.28583
G1 X119.807 Y81.894 E2.32528
G1 X120.097 Y82.917 E2.35988
G1 X120.203 Y83.573 E2.38151
G1 X120.286 Y84.579 E2.41434
G1 X120.288 Y85.331 E2.43879
G1 X119.916 Y94.768 E2.74609
G1 X119.788 Y97.184 E2.82481
G1 X119.749 Y97.571 E2.83745
G1 X119.081 Y99.771 E2.91225
G1 X117.334 Y101.936 E3.00276
G1 X90.099 Y124.026 E4.14369
G1 X88.091 Y125.145 E4.21849
G1 X85.821 Y125.513 E4.29329
G1 X84.169 Y125.283 E4.34756
G1 X83.453 Y125.089 E4.37170
G1 X82.274 Y124.647 E4.41266
G1 X81.178 Y124.112 E4.45234
G1 X79.978 Y123.442 E4.49707
G1 X78.438 Y122.286 E4.55971
G1 X77.883 Y121.758 E4.58462
G1 X76.120 Y118.923 E4.69326
G1 X75.803 Y117.910 E4.72780
G1 X75.566 Y114.990 E4.82309
G1 X80.001 Y83.709 E5.85100
G1 X80.042 Y83.478 E5.85865
G1 X80.634 Y81.675 E5.92037
G1 X81.845 Y79.949 E5.98898
G1 F1800.000 E4.98898
G92 E0
G1 X88.046 Y105.458 F7800.000
G1 E1.00000 F1800.000
G1 X87.541 Y97.274 E1.26679 F378.000
G1 X88.076 Y94.909 E1.34567
G1 X88.523 Y94.938 E1.36026
G1 X88.628 Y96.033 E1.39604
G1 X88.649 Y96.031 E1.39673
G1 X88.724 Y98.019 E1.46146
G1 X88.789 Y101.069 E1.56071
G1 X88.781 Y101.385 E1.57098
G1 X88.822 Y102.691 E1.61350
G1 X88.770 Y103.776 E1.64883
G1 X88.669 Y104.494 E1.67243
G1 X88.546 Y104.846 E1.68456
G1 X88.488 Y104.947 E1.68835
G1 X88.095 Y105.401 E1.70789
G1 X88.144 Y104.968 F7800.000
G1 F1800.000 E0.70789
G92 E0
G1 X93.344 Y91.951 F7800.000
G1 E1.00000 F1800.000
G1 X91.914 Y85.502 E1.21493 F540.000
G1 X93.910 Y85.381 E1.27997
G1 X94.627 Y85.460 E1.30345
G1 X95.060 Y85.480 E1.31756
G1 X95.854 Y85.505 E1.34339
G1 X96.353 Y85.491 E1.35964
G1 X98.160 Y85.257 E1.41892
G1 X99.778 Y85.141 E1.47168
G1 X100.289 Y85.159 E1.48832
G1 X100.853 Y85.227 E1.50681
G1 X102.791 Y85.328 E1.56994
G1 X102.792 Y85.242 E1.57274
G1 X104.484 Y85.263 E1.62780
G1 X98.564 Y91.779 E1.91422
G1 X93.419 Y91.949 E2.08172
G1 X92.821 Y92.626 F7800.000
G1 X91.099 Y84.861 E2.34049 F540.000
G1 X92.165 Y84.822 E2.37518
G1 X93.923 Y84.723 E2.43245
G1 X94.677 Y84.804 E2.45714
G1 X95.853 Y84.848 E2.49544
G1 X96.309 Y84.835 E2.51028
G1 X98.092 Y84.603 E2.56876
G1 X99.762 Y84.483 E2.62325
G1 X100.349 Y84.505 E2.64236
G1 X100.926 Y84.573 E2.66127
G1 X102.140 Y84.636 E2.70082
G1 X102.141 Y84.582 E2.70258
G1 X104.110 Y84.601 E2.76666
G1 X104.906 Y84.586 E2.79255
G1 X104.908 Y84.607 E2.79322
G1 X106.032 Y84.536 E2.82984
G1 X98.864 Y92.427 E3.17668
G1 X92.896 Y92.624 E3.37097
G1 X92.297 Y93.301 F7800.000
G1 X90.285 Y84.225 E3.67341 F378.000
G1 X92.126 Y84.165 E3.73333
G1 X93.935 Y84.065 E3.79228
G1 X94.727 Y84.149 E3.81818
G1 X95.853 Y84.191 E3.85484
G1 X96.266 Y84.179 E3.86828
G1 X98.133 Y83.938 E3.92953
G1 X99.759 Y83.825 E3.98257
G1 X100.409 Y83.850 E4.00374
G1 X101.000 Y83.919 E4.02308
G1 X101.490 Y83.945 E4.03906
G1 X101.490 Y83.916 E4.03999
G1 X104.105 Y83.944 E4.12507
G1 X105.482 Y83.897 E4.16990
G1 X105.484 Y83.912 E4.17041
G1 X106.501 Y83.842 E4.20359
G1 X107.648 Y83.733 E4.24106
G1 X99.163 Y93.074 E4.65163
G1 X92.372 Y93.298 E4.87270
G1 X92.477 Y92.834 F7800.000
G1 F1800.000 E3.87270
G92 E0
G1 X88.629 Y86.312 F7800.000
G1 E1.00000 F1800.000
G1 X88.191 Y85.555 E1.02844 F540.000
G1 X87.796 Y85.028 E1.04987
G1 X88.419 Y84.845 E1.07098
G1 X88.958 Y84.854 E1.08854
G1 X88.645 Y86.238 E1.13471
G1 X88.424 Y88.319 F7800.000
G1 X88.305 Y87.747 E1.15371 F378.000
G1 X88.094 Y86.977 E1.17971
G1 X87.868 Y86.313 E1.20251
G1 X87.672 Y85.963 E1.21555
G1 X87.456 Y85.669 E1.22743
G1 X87.082 Y85.268 E1.24528
G1 X86.911 Y84.999 E1.25564
G1 X86.908 Y84.889 E1.25924
G1 X86.931 Y84.759 E1.26354
G1 X87.156 Y84.547 E1.27359
G1 X88.145 Y84.236 E1.30732
G1 X88.329 Y84.190 E1.31347
G1 X88.590 Y84.175 E1.32198
G1 X89.776 Y84.216 E1.36061
G1 X88.848 Y88.322 E1.49760
G1 X88.499 Y88.319 E1.50894
G1 X88.614 Y87.856 F7800.000
G1 F1800.000 E0.50894
G92 E0
G1 X87.641 Y105.876 F7800.000
G1 E1.00000 F1800.000
G1 X87.639 Y105.964 E1.00288 F378.000
G1 X87.384 Y106.316 E1.01702
G1 X86.888 Y106.539 E1.03471
G1 X85.866 Y107.185 E1.07406
G1 X85.741 Y107.280 E1.07915
G1 X85.482 Y107.546 E1.09124
G1 F1800.000 E0.09124
G92 E0
G1 X88.311 Y94.573 F7800.000
G1 E1.00000 F1800.000
G1 X88.352 Y93.751 E1.02677 F378.000
G1 X88.524 Y91.677 E1.09449
G1 F1800.000 E0.09449
G92 E0
G1 X113.161 Y91.473 F7800.000
G1 E1.00000 F1800.000
G1 X113.074 Y90.392 E1.03530 F378.000
G1 X113.066 Y89.614 E1.06062
G1 X113.130 Y88.650 E1.09205
G1 X113.212 Y87.937 E1.11540
G1 X113.290 Y86.744 E1.15427
G1 F1800.000 E0.15427
G92 E0
G1 X88.144 Y88.667 F7800.000
G1 E1.00000 F1800.000
G1 X88.626 Y89.072 E1.02048 F378.000
G1 X88.580 Y90.788 E1.07633
G1 F1800.000 E0.07633
G92 E0
G1 X108.527 Y83.405 F7800.000
G1 E1.00000 F1800.000
G1 X108.895 Y83.786 E1.01722 F378.000
G1 X111.001 Y83.905 E1.08583
G1 X112.731 Y84.075 E1.14238
G1 X112.928 Y84.119 E1.14896
G1 X113.127 Y84.198 E1.15591
G1 X113.612 Y84.531 E1.17506
G1 F1800.000 E0.17506
G92 E0
G1 X103.301 Y85.812 F7800.000
G1 E1.00000 F1800.000
G1 X103.336 Y85.847 E1.00162 F1080.000
G1 X102.883 Y86.346 E1.02354
G1 X102.297 Y85.759 E1.05053
G1 X101.292 Y85.707 E1.08325
G1 X102.430 Y86.845 E1.13561
G1 X101.977 Y87.343 E1.15753
G1 X100.248 Y85.614 E1.23709
G1 X99.313 Y85.631 E1.26750
G1 X101.524 Y87.842 E1.36922
G1 X101.071 Y88.341 E1.39114
G1 X98.425 Y85.695 E1.51288
G1 X97.572 Y85.793 E1.54084
G1 X100.618 Y88.840 E1.68101
G1 X100.165 Y89.338 E1.70293
G1 X96.729 Y85.902 E1.86103
G1 X95.837 Y85.962 E1.89013
G1 X99.712 Y89.837 E2.06845
G1 X99.259 Y90.336 E2.09037
G1 X94.850 Y85.927 E2.29322
G1 X93.816 Y85.844 E2.32698
G1 X98.806 Y90.834 E2.55659
G1 X98.339 Y91.319 E2.57849
G1 X92.918 Y85.898 E2.82787
G1 X92.613 Y86.545 E2.85113
G1 X97.428 Y91.360 E3.07269
G1 X96.507 Y91.390 E3.10268
G1 X92.884 Y87.768 E3.26938
G1 X93.155 Y88.990 E3.31013
G1 X95.586 Y91.421 E3.42196
G1 X94.664 Y91.451 E3.45195
G1 X93.426 Y90.213 E3.50892
G1 X93.697 Y91.436 E3.54967
G1 X93.743 Y91.482 E3.55177
G1 F1800.000 E2.55177
G92 E0
G1 X88.190 Y96.587 F7800.000
G1 E1.00000 F1800.000
G1 X88.121 Y97.321 E1.01394 F360.000
G1 X88.283 Y101.079 E1.08514
M106 S255
G1 F1800.000 E0.08514
G92 E0
G1 Z0.550 F7800.000
G1 X84.597 Y117.701 F7800.000
G1 E1.00000 F1800.000
G1 X84.215 Y117.506 E1.00607 F600.000
G1 X83.703 Y117.189 E1.01459
G1 X83.356 Y116.837 E1.02158
G1 X83.110 Y116.466 E1.02788
G1 X82.801 Y115.786 E1.03845
G1 X82.790 Y115.756 E1.03890
G1 X82.854 Y115.420 E1.04373
G1 X83.205 Y114.099 E1.06307
G1 F1800.000 E0.06307
G92 E0
G1 X85.635 Y108.405 F7800.000
G1 E1.00000 F1800.000
G1 X85.885 Y108.028 E1.00639 F600.000
G1 X86.323 Y107.432 E1.01686
G1 X87.211 Y106.616 E1.03391
G1 X87.392 Y106.470 E1.03720
G1 F1800.000 E0.03720
G92 E0
G1 X113.150 Y91.496 F7800.000
G1 E1.00000 F1800.000
G1 X113.048 Y90.349 E1.01629 F600.000
G1 X113.051 Y89.286 E1.03132
G1 X113.336 Y86.748 E1.06746
G1 F1800.000 E0.06746
G92 E0
G1 X88.331 Y85.036 F7800.000
G1 E1.00000 F1800.000
G1 X89.498 Y85.116 E1.01655 F600.000
G1 X90.425 Y85.146 E1.02967
G1 X91.414 Y85.083 E1.04368
G1 X92.450 Y85.060 E1.05835
G1 X94.034 Y84.978 E1.08079
G1 X94.432 Y85.025 E1.08646
G1 X96.125 Y85.061 E1.11041
G1 X96.464 Y85.041 E1.11522
G1 X97.609 Y84.893 E1.13155
G1 X98.841 Y84.766 E1.14907
G1 X99.700 Y84.709 E1.16126
G1 X100.521 Y84.735 E1.17288
G1 X101.367 Y84.809 E1.18490
G1 X102.986 Y84.808 E1.20779
G1 X104.187 Y84.833 E1.22479
G1 X105.472 Y84.785 E1.24298
G1 X97.343 Y93.735 E1.41402
M106 S255
G1 X90.435 Y101.340 E1.69942 F3600.000
G1 X90.327 Y97.137 E1.81620
G1 X90.198 Y94.551 E1.88814
G1 X90.102 Y94.557 E1.89080
G1 X89.983 Y93.706 E1.91468
G1 X89.877 Y92.025 E1.96147
G1 X89.681 Y90.365 E2.00790
G1 X89.395 Y88.622 E2.05696
M106 S255
G1 X89.065 Y87.018 E2.08012 F600.000
G1 X88.862 Y86.270 E2.09108
G1 X88.599 Y85.556 E2.10185
G1 X88.365 Y85.103 E2.10907
G1 X87.556 Y84.845 F7800.000
G1 X87.931 Y84.729 E2.11463 F600.000
G1 X88.352 Y84.563 E2.12103
G1 X88.602 Y84.554 E2.12456
G1 X89.543 Y84.617 E2.13790
G1 X90.422 Y84.645 E2.15036
G1 X91.394 Y84.583 E2.16412
G1 X92.421 Y84.561 E2.17866
G1 X94.038 Y84.477 E2.20157
G1 X94.465 Y84.526 E2.20764
G1 X96.108 Y84.562 E2.23090
G1 X96.421 Y84.543 E2.23533
G1 X97.547 Y84.397 E2.25140
G1 X98.797 Y84.268 E2.26917
G1 X99.694 Y84.209 E2.28189
G1 X100.564 Y84.237 E2.29420
G1 X101.371 Y84.309 E2.30567
G1 X102.983 Y84.308 E2.32847
G1 X104.181 Y84.333 E2.34542
G1 X105.723 Y84.286 E2.36725
G1 X106.675 Y84.204 E2.38077
G1 X98.039 Y93.712 E2.56247
M106 S255
G1 X89.958 Y102.608 E2.89633 F3600.000
G1 X89.834 Y97.347 E3.04250
G1 X89.725 Y95.084 E3.10544
G1 X89.668 Y95.088 E3.10703
G1 X89.485 Y93.759 E3.14431
G1 X89.380 Y92.078 E3.19108
G1 X89.185 Y90.431 E3.23715
G1 X89.106 Y89.902 E3.25202
M106 S255
G1 X88.968 Y89.046 E3.26428 F600.000
G1 X88.715 Y87.766 E3.28274
G1 X88.578 Y87.134 E3.29189
G1 X88.384 Y86.415 E3.30242
G1 X88.142 Y85.761 E3.31229
G1 X88.043 Y85.569 E3.31535
G1 X87.885 Y85.309 E3.31965
G1 X87.597 Y84.907 E3.32664
G1 X107.914 Y83.584 F7800.000
G1 X98.736 Y93.689 E3.51977 F600.000
G1 X89.220 Y95.486 F7800.000
G1 X89.172 Y95.153 E3.52453 F600.000
M106 S255
G1 X89.118 Y94.707 E3.53700 F3600.000
M106 S255
G1 X88.997 Y93.869 E3.54898 F600.000
M106 S255
G1 X88.930 Y92.800 E3.57873 F3600.000
M106 S255
G1 X98.736 Y93.689 F7800.000
M106 S255
G1 X89.694 Y103.643 E3.95227 F3600.000
G1 X89.432 Y103.530 E3.96021
G1 X89.456 Y103.214 E3.96899
G1 X89.455 Y102.442 E3.99045
G1 X89.373 Y98.843 E4.09046
G1 X89.310 Y96.724 E4.14935
G1 X89.252 Y95.618 E4.18011
G1 X89.220 Y95.486 E4.18387
M106 S255
G1 X88.930 Y92.800 F7800.000
G1 X88.883 Y92.131 E4.19336 F600.000
G1 X88.615 Y90.001 E4.22373
G1 X88.476 Y89.134 E4.23616
G1 X88.092 Y87.249 E4.26337
G1 X87.905 Y86.560 E4.27347
G1 X87.685 Y85.966 E4.28243
G1 X87.544 Y85.702 E4.28666
G1 X87.206 Y85.220 E4.29500
G1 X87.110 Y84.990 E4.29851
G1 X87.067 Y84.813 E4.30109
G1 X87.114 Y84.658 E4.30338
G1 X87.159 Y84.576 E4.30471
G1 X87.387 Y84.375 E4.30901
G1 X87.771 Y84.255 E4.31471
G1 X88.229 Y84.076 E4.32166
G1 X88.578 Y84.051 E4.32661
G1 X89.587 Y84.119 E4.34092
G1 X90.420 Y84.145 E4.35271
G1 X91.374 Y84.084 E4.36623
G1 X92.391 Y84.061 E4.38062
G1 X94.048 Y83.976 E4.40409
G1 X94.497 Y84.026 E4.41049
G1 X96.091 Y84.062 E4.43305
G1 X96.377 Y84.045 E4.43710
G1 X97.486 Y83.900 E4.45292
G1 X98.753 Y83.770 E4.47094
G1 X99.547 Y83.714 E4.48220
G1 X100.576 Y83.736 E4.49676
G1 X101.375 Y83.808 E4.50812
G1 X102.980 Y83.808 E4.53081
G1 X104.174 Y83.833 E4.54771
G1 X105.868 Y83.776 E4.57169
G1 X106.931 Y83.659 E4.58681
G1 X107.840 Y83.589 E4.59971
G1 X89.087 Y92.326 F7800.000
G1 F1800.000 E3.59971
G92 E0
G1 X111.957 Y84.341 F7800.000
G1 E1.00000 F1800.000
G1 X112.813 Y84.365 E1.01212 F600.000
G1 X112.853 Y84.801 E1.01831
M106 S255
G1 X112.860 Y84.873 E1.02033 F3600.000
G1 X111.919 Y84.713 E1.04685
G1 X111.926 Y84.643 E1.04881
M106 S255
G1 X111.949 Y84.416 E1.05204 F600.000
G1 X113.291 Y85.454 F7800.000
G1 X113.117 Y85.425 E1.05453 F600.000
M106 S255
G1 X111.265 Y85.109 E1.10673 F3600.000
G1 X109.033 Y84.988 E1.16882
G1 X109.001 Y84.390 E1.18546
M106 S255
G1 X108.964 Y83.678 E1.19555 F600.000
G1 X111.205 Y83.846 E1.22734
G1 X112.667 Y83.862 E1.24802
G1 X112.896 Y83.903 E1.25132
G1 X113.021 Y83.959 E1.25325
G1 X113.214 Y84.092 E1.25658
G1 X113.278 Y84.218 E1.25858
G1 X113.319 Y84.411 E1.26136
G1 X113.377 Y85.049 E1.27042
G1 X113.307 Y85.381 E1.27523
G1 X109.258 Y83.960 F7800.000
G1 F1800.000 E0.27523
G92 E0
G1 X100.234 Y89.881 F7800.000
G1 E1.00000 F1800.000
G1 X99.918 Y90.197 E1.01019 F1181.197
G1 X98.702 Y90.237 E1.03798
G1 X103.666 Y85.273 E1.19829
G1 X102.504 Y85.259 E1.22483
G1 X97.486 Y90.277 E1.38688
G1 X96.270 Y90.317 E1.41467
G1 X101.328 Y85.259 E1.57804
G1 X100.234 Y85.176 E1.60309
G1 X95.054 Y90.357 E1.77041
G1 X94.440 Y89.795 E1.78942
G1 X99.029 Y85.206 E1.93762
G1 X97.724 Y85.334 E1.96756
G1 X94.227 Y88.832 E2.08052
G1 X94.013 Y87.869 E2.10303
G1 X96.385 Y85.498 E2.17963
G1 X95.213 Y85.493 E2.20638
G1 X93.550 Y87.156 E2.26009
G1 X92.399 Y87.132 E2.28639
G1 X94.092 Y85.439 E2.34106
G1 X92.864 Y85.490 E2.36911
G1 X91.627 Y86.727 E2.40907
G1 X91.609 Y85.569 E2.43553
G1 X91.649 Y85.529 E2.43683
G1 X91.210 Y85.717 F7800.000
M106 S255
G1 X91.096 Y85.555 E2.44231 F3600.000
G1 X90.430 Y85.597 E2.46087
G1 X91.225 Y86.733 E2.49939
M106 S255
G1 X91.776 Y87.520 F7800.000
M106 S255
G1 X96.392 Y94.112 E2.72290 F3600.000
G1 X95.998 Y94.544 E2.73915
G1 X89.717 Y85.574 E3.04334
G1 X89.172 Y85.789 E3.05963
G1 X95.605 Y94.977 E3.37119
G1 X95.212 Y95.410 E3.38743
G1 X89.603 Y87.399 E3.65908
M106 S255
G1 X89.889 Y88.802 F7800.000
M106 S255
G1 X94.819 Y95.843 E3.89784 F3600.000
G1 X94.426 Y96.276 E3.91408
G1 X90.094 Y90.090 E4.12385
G1 X90.246 Y91.300 E4.15774
G1 X94.032 Y96.709 E4.34114
G1 X93.639 Y97.141 E4.35738
G1 X90.356 Y92.452 E4.51639
G1 X90.425 Y93.545 E4.54680
G1 X93.246 Y97.574 E4.68343
G1 X92.853 Y98.007 E4.69968
G1 X90.666 Y94.884 E4.80558
G1 X90.719 Y95.955 E4.83536
G1 X92.460 Y98.440 E4.91964
G1 X92.067 Y98.873 E4.93588
G1 X90.773 Y97.025 E4.99854
G1 X90.802 Y98.061 E5.02731
G1 X91.673 Y99.306 E5.06953
G1 X91.280 Y99.738 E5.08577
G1 X90.828 Y99.093 E5.10767
G1 X90.855 Y100.125 E5.13635
G1 X90.875 Y100.155 E5.13735
M106 S255
G1 X94.748 Y90.769 F7800.000
M106 S255
G1 X96.785 Y93.679 E5.23600 F3600.000
G1 X97.178 Y93.246 E5.25225
G1 X95.428 Y90.747 E5.33698
G1 X96.109 Y90.725 E5.35590
G1 X97.571 Y92.813 E5.42672
G1 X97.964 Y92.380 E5.44296
G1 X96.789 Y90.702 E5.49986
G1 X97.470 Y90.680 E5.51877
G1 X98.357 Y91.947 E5.56176
G1 X98.751 Y91.514 E5.57800
G1 X98.150 Y90.657 E5.60707
G1 X98.831 Y90.635 E5.62598
G1 X99.144 Y91.082 E5.64113
G1 X99.537 Y90.649 E5.65738
G1 X99.511 Y90.612 E5.65861
M106 S255
G1 X94.012 Y89.718 F7800.000
M106 S255
G1 X92.483 Y87.535 E5.73264 F3600.000
G1 X93.190 Y87.550 E5.75227
G1 X93.689 Y88.263 E5.77645
M106 S255
G1 F1800.000 E4.77645
G92 E0
G1 X109.235 Y83.959 F7800.000
G1 E1.00000 F1800.000
G1 X109.646 Y84.376 E1.01172 F600.000
G1 X111.690 Y84.491 E1.05268
G1 F1800.000 E0.05268
G92 E0
G1 Z0.750 F7800.000
G1 X83.036 Y115.367 F7800.000
G1 E1.00000 F1800.000
G1 X83.324 Y115.390 E1.00409 F600.000
G1 X83.353 Y115.509 E1.00583
M106 S255
G1 X83.434 Y115.849 E1.01554 F3600.000
G1 X83.381 Y115.874 E1.01716
M106 S255
G1 X83.140 Y115.988 E1.02093 F600.000
G1 X82.904 Y115.676 E1.02647
G1 X83.006 Y115.436 E1.03016
G1 X83.118 Y115.918 F7800.000
G1 F1800.000 E0.03016
G92 E0
G1 X86.213 Y118.165 F7800.000
G1 E1.00000 F1800.000
G1 X84.872 Y117.522 E1.02104 F600.000
G1 X83.931 Y116.959 E1.03656
G1 X83.565 Y116.425 E1.04572
G1 X83.665 Y116.017 E1.05166
G1 X83.221 Y115.131 F7800.000
G1 X83.367 Y114.441 E1.06164 F600.000
G1 X83.560 Y113.796 E1.07116
G1 X85.604 Y108.932 E1.14581
G1 X85.640 Y108.724 E1.14879
G1 X86.069 Y108.052 E1.16007
G1 F1800.000 E0.16007
G92 E0
G1 X90.458 Y101.311 F7800.000
G1 E1.00000 F1800.000
G1 X90.352 Y97.510 E1.05379 F690.540
G1 X90.273 Y95.873 E1.07698
G1 X90.100 Y94.497 E1.09660
G1 X89.988 Y93.761 E1.10712
G1 X89.914 Y92.543 E1.12439
G1 X89.676 Y90.503 E1.15345
G1 X89.395 Y88.693 E1.17936
G1 X89.057 Y86.980 E1.20406
G1 X88.830 Y86.136 E1.21642
G1 X88.687 Y85.685 E1.22311
G1 X88.432 Y85.031 E1.23305
G1 X89.469 Y85.110 E1.24776
G1 X90.309 Y85.141 E1.25966
